packages/web-icons/svgs/book_4.svg

<svg viewBox="0 0 38 48" xmlns="http://www.w3.org/2000/svg" class="ridi_icon"><path d="M6.9 39.8h25.7c2.5 0 4.5-2 4.5-4.5V4.5c0-2.5-2-4.5-4.5-4.5H5.4C2.9 0 .9 2 .9 4.5v37.4C.9 45.2 3.6 48 7 48h28.2c1.1 0 1.9-.9 1.9-1.9 0-1.1-.9-1.9-1.9-1.9H6.9c-1.2 0-2.1-1-2.1-2.1 0-1.3 1-2.3 2.1-2.3zM33.2 4.5v30.9c0 .3-.2.5-.5.5H10.5v-32h22.1c.3 0 .6.3.6.6zM5.4 3.9h3.2v32H7c-.7 0-1.5.1-2.1.4V4.5c-.1-.3.1-.6.5-.6z"/></svg>

<?xml version="1.0" encoding="UTF-8"?>
<svg width="38px" height="48px" viewBox="0 0 38 48" version="1.1" xmlns="http://www.w3.org/2000/svg">
  <!-- Generator: Sketch 41.2 (35397) - http://www.bohemiancoding.com/sketch -->
  <title>book_4</title>
  <desc>Created with Sketch.</desc>
  <defs></defs>
  <g id="Page-1" stroke="none" stroke-width="1" fill="none" fill-rule="evenodd">
    <g id="book_4" fill="#444444">
      <g id="레이어_1">
        <path d="M6.9,39.8 L32.2,39.8 L32.4,39.8 L32.6,39.8 C35.1,39.8 37.1,37.8 37.1,35.3 L37.1,4.5 C37.1,2 35.1,0 32.6,0 L5.4,0 C2.9,0 0.9,2 0.9,4.5 L0.9,41 L0.9,41.3 L0.9,41.9 C0.9,45.2 3.6,48 7,48 L35.2,48 C36.3,48 37.1,47.1 37.1,46.1 C37.1,45 36.2,44.2 35.2,44.2 L6.9,44.2 C5.7,44.2 4.8,43.2 4.8,42.1 C4.8,40.8 5.8,39.8 6.9,39.8 Z M33.2,4.5 L33.2,35.4 C33.2,35.7 33,35.9 32.7,35.9 L32.5,35.9 L32.3,35.9 L10.5,35.9 L10.5,3.9 L32.6,3.9 C32.9,3.9 33.2,4.2 33.2,4.5 Z M5.4,3.9 L8.6,3.9 L8.6,35.9 L7,35.9 C6.3,35.9 5.5,36 4.9,36.3 L4.9,4.5 C4.8,4.2 5,3.9 5.4,3.9 Z" id="Shape"></path>
      </g>
    </g>
  </g>
</svg>
